X: 1
T: the Banks of the Ilen
N: variant of "the Humours of Drinagh" jig
R: jig
S: Fiddle Hell Online 2021-11-7 Matt Cranitch workshop on "metrical crossover"
Z: 2021 John Chambers <jc:trillian.mit.edu>
M: 4/4
L: 1/8
K: D
|:"D"FDFA d2fd | d2fd "A"ecAG | "D"FDFA d2fd | dcAF "G"G2AG |
| "D"FDFA d2fd | d2fd "A"ecAG | "D"FDFA d2fd | dcAF "G"G2de ||
|:"D"f3f "G"g2fg | "D"abag  fdde | "D"f3f "G"g2fg | "D"abaf "G"g2fg |
| "D"agfa "G"gfeg | "D"fedf "A"ecAG | "D"FDFA d2fd | dcAF [1 "G"G2de :|2 "G"G4 |]
